logo.svg

<?xml version="1.0" encoding="UTF-8"?>
<svg width="224px" height="297px" viewBox="0 0 224 297" version="1.1" xmlns="http://www.w3.org/2000/svg" xmlns:xlink="http://www.w3.org/1999/xlink">
    <!-- Generator: Sketch 50.2 (55047) - http://www.bohemiancoding.com/sketch -->
    <title>Group</title>
    <desc>Created with Sketch.</desc>
    <defs>
        <filter x="-12.5%" y="-7.6%" width="125.5%" height="118.3%" filterUnits="objectBoundingBox" id="filter-1">
            <feOffset dx="0" dy="4" in="SourceAlpha" result="shadowOffsetOuter1"></feOffset>
            <feGaussianBlur stdDeviation="7.5" in="shadowOffsetOuter1" result="shadowBlurOuter1"></feGaussianBlur>
            <feColorMatrix values="0 0 0 0 0   0 0 0 0 0   0 0 0 0 0  0 0 0 0.2 0" type="matrix" in="shadowBlurOuter1" result="shadowMatrixOuter1"></feColorMatrix>
            <feMerge>
                <feMergeNode in="shadowMatrixOuter1"></feMergeNode>
                <feMergeNode in="SourceGraphic"></feMergeNode>
            </feMerge>
        </filter>
    </defs>
    <g id="Page-1" stroke="none" stroke-width="1" fill="none" fill-rule="evenodd">
        <g id="Group" transform="translate(14.000000, 10.000000)">
            <g id="firebase-1" filter="url(#filter-1)" fill-rule="nonzero">
                <path d="M0.329644097,215.945868 L3.67962703,212.880466 L80.3055556,67.6330278 L46.2549004,3.31805563 C43.4251868,-1.99125222 36.2386861,-0.637536664 35.310102,5.30586789 L0.329644097,215.945868 Z" id="a" fill="#34C6ED"></path>
                <path d="M127.944444,87.0768164 L103.359448,36.5091766 C101.025182,31.7091176 95.353728,31.2059859 93.0440168,36.0201359 L78.9444444,65.3351134 L103.359448,114.274112 L127.944444,87.0768164 Z" id="c" fill="#34C6ED"></path>
                <polygon id="Shape" fill="#17ADD6" points="0.225965712 215.785781 4.13855192 214.28831 102.201833 115.492424 103.444444 112.072388 78.9298103 65.2994924"></polygon>
                <path d="M196,215.701733 L170.472416,58.2010648 C169.673622,53.2733684 163.639229,51.3255497 160.118077,54.8584261 L0.298407661,215.701733 L88.5295186,265.642603 C94.1467709,268.784428 100.987974,268.785885 106.60656,265.646454 L196,215.701733 Z" id="Shape" fill="#61DAFB"></path>
            </g>
            <g id="React-icon" transform="translate(83.000000, 139.000000)"></g>
            <path d="M175,180.509499 C175,174.335317 167.367713,168.484092 155.666123,164.855573 C158.36649,152.773175 157.166327,143.160449 151.878108,140.082856 C150.659193,139.360952 149.233999,139.018997 147.677538,139.018997 L147.677538,143.255436 C148.540155,143.255436 149.233999,143.426413 149.815328,143.749371 C152.365675,145.231174 153.472075,150.873426 152.609458,158.130465 C152.40318,159.916228 152.065634,161.796979 151.653078,163.715724 C147.977578,162.803845 143.964533,162.100938 139.74521,161.644999 C137.213616,158.130465 134.588259,154.938888 131.94415,152.146258 C138.057481,146.390021 143.79576,143.236439 147.69629,143.236439 L147.69629,139 C147.69629,139 147.69629,139 147.69629,139 C142.53934,139 135.788422,142.723507 128.962495,149.18265 C122.136567,142.761501 115.38565,139.07599 110.2287,139.07599 L110.2287,143.312428 C114.110477,143.312428 119.867509,146.447013 125.98084,152.165255 C123.355483,154.957885 120.730126,158.130465 118.236038,161.644999 C113.997962,162.100938 109.984916,162.803845 106.309417,163.734722 C105.878108,161.834974 105.559315,159.992218 105.334285,158.225452 C104.452915,150.968414 105.540563,145.326162 108.072157,143.82536 C108.634733,143.483406 109.366082,143.331426 110.2287,143.331426 L110.2287,139.094987 C110.2287,139.094987 110.2287,139.094987 110.2287,139.094987 C108.653486,139.094987 107.228292,139.436942 105.990624,140.158846 C100.721158,143.236439 99.5397472,152.830167 102.258867,164.874571 C90.5947819,168.522087 83,174.354314 83,180.509499 C83,186.68368 90.632287,192.534905 102.333877,196.163424 C99.63351,208.245823 100.833673,217.858549 106.121892,220.936141 C107.340807,221.658045 108.766001,222 110.341215,222 C115.498166,222 122.249083,218.276493 129.07501,211.81735 C135.900938,218.238499 142.651855,221.92401 147.808806,221.92401 C149.38402,221.92401 150.809213,221.582055 152.046881,220.860151 C157.316347,217.782559 158.497758,208.18883 155.778638,196.144427 C167.405218,192.515908 175,186.664683 175,180.509499 Z M150.584183,167.838178 C149.890338,170.288853 149.027721,172.815518 148.052589,175.342184 C147.283734,173.822385 146.477375,172.302586 145.596005,170.782788 C144.733388,169.262989 143.814513,167.781186 142.895638,166.337377 C145.5585,166.736324 148.127599,167.230259 150.584183,167.838178 Z M141.995516,188.070497 C140.532817,190.635157 139.032613,193.066835 137.476152,195.327535 C134.682022,195.574502 131.850387,195.707485 129,195.707485 C126.168365,195.707485 123.336731,195.574502 120.561353,195.346532 C119.004892,193.085832 117.485936,190.673152 116.023237,188.127489 C114.598043,185.638819 113.304117,183.112154 112.122707,180.566491 C113.285365,178.020829 114.598043,175.475166 116.004484,172.986496 C117.467183,170.421836 118.967387,167.990158 120.523848,165.729458 C123.317978,165.48249 126.149613,165.349508 129,165.349508 C131.831635,165.349508 134.663269,165.48249 137.438647,165.71046 C138.995108,167.97116 140.514064,170.383841 141.976763,172.929503 C143.401957,175.418173 144.695883,177.944839 145.877293,180.490501 C144.695883,183.036164 143.401957,185.581827 141.995516,188.070497 Z M148.052589,185.600824 C149.065226,188.146487 149.927843,190.692149 150.64044,193.161822 C148.183857,193.769741 145.596005,194.282673 142.914391,194.681621 C143.833265,193.218814 144.75214,191.718013 145.614757,190.179217 C146.477375,188.659419 147.283734,187.120623 148.052589,185.600824 Z M129.037505,205.871138 C127.293518,204.047379 125.549531,202.014649 123.824297,199.791943 C125.512026,199.867933 127.23726,199.924926 128.981247,199.924926 C130.743987,199.924926 132.487974,199.886931 134.194456,199.791943 C132.506726,202.014649 130.76274,204.047379 129.037505,205.871138 Z M115.085609,194.681621 C112.422748,194.282673 109.853649,193.788739 107.397065,193.180819 C108.090909,190.730144 108.953526,188.203479 109.928659,185.676814 C110.697513,187.196612 111.503873,188.716411 112.385243,190.23621 C113.266612,191.756008 114.166735,193.237812 115.085609,194.681621 Z M128.943742,155.14786 C130.687729,156.971618 132.431716,159.004349 134.156951,161.227054 C132.469221,161.151064 130.743987,161.094072 129,161.094072 C127.23726,161.094072 125.493274,161.132067 123.786792,161.227054 C125.474521,159.004349 127.218508,156.971618 128.943742,155.14786 Z M115.066857,166.337377 C114.147982,167.800183 113.229107,169.300984 112.36649,170.83978 C111.503873,172.359579 110.697513,173.879377 109.928659,175.399176 C108.916021,172.853513 108.053404,170.307851 107.340807,167.838178 C109.797391,167.249256 112.385243,166.736324 115.066857,166.337377 Z M98.0958011,190.122225 C91.4573991,187.253605 87.1630656,183.492103 87.1630656,180.509499 C87.1630656,177.526894 91.4573991,173.746395 98.0958011,170.896773 C99.7085202,170.193866 101.47126,169.566949 103.290257,168.978027 C104.359152,172.701534 105.765593,176.57702 107.50958,180.547494 C105.784346,184.49897 104.396657,188.355459 103.346514,192.059968 C101.490012,191.471046 99.7272727,190.825132 98.0958011,190.122225 Z M108.184672,217.269627 C105.634325,215.787823 104.527925,210.145571 105.390542,202.888533 C105.59682,201.10277 105.934366,199.222019 106.346922,197.303273 C110.022422,198.215152 114.035467,198.918059 118.25479,199.373999 C120.786384,202.888533 123.411741,206.08011 126.05585,208.87274 C119.942519,214.628977 114.20424,217.782559 110.30371,217.782559 C109.459845,217.763561 108.747248,217.592584 108.184672,217.269627 Z M152.665715,202.793545 C153.547085,210.050584 152.459437,215.692836 149.927843,217.193637 C149.365267,217.535592 148.633918,217.687572 147.7713,217.687572 C143.889523,217.687572 138.132491,214.552987 132.01916,208.834745 C134.644517,206.042115 137.269874,202.869535 139.763962,199.355001 C144.002038,198.899062 148.015084,198.196155 151.690583,197.265278 C152.121892,199.184024 152.459437,201.02678 152.665715,202.793545 Z M159.885446,190.122225 C158.272727,190.825132 156.509988,191.452049 154.690991,192.04097 C153.622095,188.317464 152.215654,184.441978 150.471667,180.471504 C152.196902,176.520027 153.58459,172.663539 154.634733,168.95903 C156.491235,169.547951 158.253975,170.193866 159.904199,170.896773 C166.542601,173.765393 170.836934,177.526894 170.836934,180.509499 C170.818182,183.492103 166.523848,187.272602 159.885446,190.122225 Z" id="Shape" fill="#FFFFFF" fill-rule="nonzero"></path>
            <ellipse id="Oval-2" fill="#FFFFFF" cx="130.5" cy="180" rx="6.5" ry="6"></ellipse>
        </g>
    </g>
</svg>

<svg width="224" height="297" xmlns="http://www.w3.org/2000/svg"><defs><filter x="-12.5%" y="-7.6%" width="125.5%" height="118.3%" filterUnits="objectBoundingBox" id="a"><feOffset dy="4" in="SourceAlpha" result="shadowOffsetOuter1"/><feGaussianBlur stdDeviation="7.5" in="shadowOffsetOuter1" result="shadowBlurOuter1"/><feColorMatrix values="0 0 0 0 0 0 0 0 0 0 0 0 0 0 0 0 0 0 0.2 0" in="shadowBlurOuter1" result="shadowMatrixOuter1"/><feMerge><feMergeNode in="shadowMatrixOuter1"/><feMergeNode in="SourceGraphic"/></feMerge></filter></defs><g transform="translate(14 10)" fill="none" fill-rule="evenodd"><g filter="url(#a)" fill-rule="nonzero"><path d="M.33 215.946l3.35-3.066L80.306 67.633 46.255 3.318c-2.83-5.31-10.016-3.956-10.945 1.988L.33 215.946z" fill="#34C6ED"/><path d="M127.944 87.077L103.36 36.509c-2.334-4.8-8.005-5.303-10.315-.489l-14.1 29.315 24.415 48.94 24.585-27.198z" fill="#34C6ED"/><path fill="#17ADD6" d="M.226 215.786l3.913-1.498 98.063-98.796 1.242-3.42L78.93 65.3z"/><path d="M196 215.702l-25.528-157.5c-.798-4.929-6.833-6.876-10.354-3.344L.298 215.702l88.232 49.94a18.52 18.52 0 0 0 18.077.004L196 215.702z" fill="#61DAFB"/></g><path d="M175 180.51c0-6.175-7.632-12.026-19.334-15.654 2.7-12.083 1.5-21.696-3.788-24.773-1.219-.722-2.644-1.064-4.2-1.064v4.236c.862 0 1.556.171 2.137.494 2.55 1.482 3.657 7.124 2.794 14.381-.206 1.786-.543 3.667-.956 5.586-3.675-.912-7.688-1.615-11.908-2.071-2.531-3.515-5.157-6.706-7.8-9.499 6.112-5.756 11.85-8.91 15.751-8.91V139c-5.157 0-11.908 3.724-18.734 10.183-6.825-6.421-13.576-10.107-18.733-10.107v4.236c3.881 0 9.639 3.135 15.752 8.853a89.48 89.48 0 0 0-7.745 9.48c-4.238.456-8.251 1.159-11.927 2.09-.43-1.9-.75-3.743-.975-5.51-.881-7.257.207-12.899 2.738-14.4.563-.342 1.294-.494 2.157-.494v-4.236c-1.576 0-3 .342-4.238 1.064-5.27 3.077-6.451 12.671-3.732 24.716C90.595 168.522 83 174.355 83 180.509c0 6.175 7.632 12.026 19.334 15.654-2.7 12.083-1.5 21.696 3.788 24.773 1.219.722 2.644 1.064 4.22 1.064 5.156 0 11.907-3.724 18.733-10.183 6.826 6.421 13.577 10.107 18.734 10.107 1.575 0 3-.342 4.238-1.064 5.27-3.077 6.45-12.671 3.732-24.716 11.626-3.628 19.221-9.48 19.221-15.635zm-24.416-12.672a86.33 86.33 0 0 1-2.531 7.504 90.278 90.278 0 0 0-2.457-4.56 103.035 103.035 0 0 0-2.7-4.445c2.663.4 5.232.893 7.688 1.501zm-8.588 20.232c-1.463 2.565-2.963 4.997-4.52 7.258-2.794.247-5.626.38-8.476.38-2.832 0-5.663-.133-8.439-.361a104.915 104.915 0 0 1-4.538-7.22 99.422 99.422 0 0 1-3.9-7.56 99.543 99.543 0 0 1 3.881-7.58c1.463-2.565 2.963-4.997 4.52-7.258a96.324 96.324 0 0 1 8.476-.38c2.832 0 5.663.133 8.439.361a104.915 104.915 0 0 1 4.538 7.22 99.422 99.422 0 0 1 3.9 7.56 106.88 106.88 0 0 1-3.881 7.58zm6.057-2.47a82.139 82.139 0 0 1 2.587 7.562 83.198 83.198 0 0 1-7.726 1.52 105.223 105.223 0 0 0 2.7-4.503c.863-1.52 1.67-3.058 2.439-4.578zm-19.015 20.271a78.033 78.033 0 0 1-5.214-6.08c1.688.077 3.413.134 5.157.134 1.763 0 3.507-.038 5.213-.133a73.896 73.896 0 0 1-5.156 6.08zm-13.952-11.19a83.647 83.647 0 0 1-7.689-1.5 86.33 86.33 0 0 1 2.532-7.504 90.278 90.278 0 0 0 2.456 4.56c.882 1.519 1.782 3 2.7 4.445zm13.858-39.533a78.034 78.034 0 0 1 5.213 6.08 114.593 114.593 0 0 0-5.157-.134c-1.763 0-3.507.038-5.213.133a73.896 73.896 0 0 1 5.157-6.08zm-13.877 11.19a105.221 105.221 0 0 0-5.138 9.061 82.139 82.139 0 0 1-2.588-7.56 90.024 90.024 0 0 1 7.726-1.502zm-16.971 23.784c-6.639-2.868-10.933-6.63-10.933-9.613 0-2.982 4.294-6.763 10.933-9.612 1.613-.703 3.375-1.33 5.194-1.919 1.07 3.724 2.476 7.599 4.22 11.57-1.726 3.951-3.113 7.807-4.163 11.512a56.493 56.493 0 0 1-5.251-1.938zm10.089 27.148c-2.55-1.482-3.657-7.124-2.794-14.381.206-1.786.543-3.667.956-5.586 3.675.912 7.688 1.615 11.908 2.071 2.531 3.515 5.157 6.706 7.8 9.499-6.112 5.756-11.85 8.91-15.751 8.91-.844-.02-1.557-.19-2.12-.513zm44.48-14.476c.882 7.257-.206 12.899-2.737 14.4-.563.342-1.294.494-2.157.494-3.881 0-9.639-3.135-15.752-8.853a89.48 89.48 0 0 0 7.745-9.48c4.238-.456 8.251-1.159 11.927-2.09.43 1.919.768 3.762.975 5.529zm7.22-12.672c-1.612.703-3.375 1.33-5.194 1.919-1.069-3.724-2.475-7.599-4.22-11.57 1.726-3.951 3.114-7.807 4.164-11.512a58.98 58.98 0 0 1 5.27 1.938c6.638 2.868 10.932 6.63 10.932 9.612-.019 2.983-4.313 6.764-10.952 9.613z" fill="#FFF" fill-rule="nonzero"/><ellipse fill="#FFF" cx="130.5" cy="180" rx="6.5" ry="6"/></g></svg>
